static/library/tools/即时设计.svg

<svg width="46" height="46" viewBox="0 0 46 46" fill="none" xmlns="http://www.w3.org/2000/svg">
<path d="M31.6175 3H14.3825C8.09614 3 3 8.09614 3 14.3825V31.6175C3 37.9039 8.09614 43 14.3825 43H31.6175C37.9039 43 43 37.9039 43 31.6175V14.3825C43 8.09614 37.9039 3 31.6175 3Z" fill="#273347"/>
<path fill-rule="evenodd" clip-rule="evenodd" d="M25.1358 10.5762C25.4245 10.0473 26.1001 9.84608 26.6444 10.1266C26.8414 10.2283 27.0025 10.3848 27.1071 10.5762L34.8049 24.6715C35.065 25.1481 35.065 25.7191 34.8049 26.1959L29.9223 35.136C29.632 35.6677 29.0634 36 28.4439 36H17.5561C16.9366 36 16.3681 35.6677 16.0777 35.136L11.1951 26.1959C10.935 25.7191 10.935 25.1481 11.1951 24.6715L18.8931 10.5762C19.1819 10.0473 19.8574 9.84608 20.4018 10.1266C20.5988 10.2283 20.7598 10.3848 20.8645 10.5762L23 14.4865L25.1358 10.5762ZM25.8599 15.2146C26.132 15.0743 26.4697 15.1748 26.6141 15.4393L31.8641 25.0526C31.9944 25.2908 31.9944 25.5765 31.8641 25.8147L28.0174 32.8588C27.8722 33.1245 27.5878 33.2907 27.278 33.2907H18.722C18.4123 33.2907 18.1278 33.1245 17.9827 32.8588L14.136 25.8147C14.0056 25.5765 14.0056 25.2908 14.136 25.0526L19.3859 15.4393C19.4383 15.3437 19.5187 15.2653 19.6173 15.2146C19.8894 15.0743 20.2272 15.1748 20.3715 15.4393L21.4256 17.3691L18.3426 23.0147C18.1952 23.2846 18.0741 23.5641 17.9795 23.8498L17.9675 23.8859L17.9291 24.0096C17.7943 24.4644 17.7221 24.9449 17.7221 25.4419C17.7221 28.2849 20.0864 30.5895 23.0029 30.5895C25.9196 30.5895 28.2839 28.2849 28.2839 25.4419C28.2839 24.5168 28.0335 23.6486 27.5942 22.8988L26.1314 20.221L24.5572 23.1039L25.2039 24.2879C25.3995 24.646 25.4973 25.0398 25.4973 25.4336H25.5043L25.504 25.4867C25.4796 26.8127 24.3692 27.8802 23.0029 27.8802C21.6213 27.8802 20.5015 26.7886 20.5015 25.4419L20.5017 25.4377L20.5027 25.4336C20.5027 25.2754 20.5185 25.1173 20.55 24.9614L20.5585 24.9217C20.6131 24.6766 20.7056 24.4453 20.8297 24.2338L20.8264 24.2321L23 20.2522L23.0018 20.2555L24.576 17.3728L24.5743 17.3693L25.6285 15.4393C25.6807 15.3437 25.7613 15.2653 25.8599 15.2146Z" fill="white"/>
</svg>

<svg width="46" height="46" fill="none" xmlns="http://www.w3.org/2000/svg"><path d="M31.617 3H14.383C8.097 3 3 8.096 3 14.383v17.235C3 37.904 8.096 43 14.383 43h17.235C37.904 43 43 37.904 43 31.617V14.383C43 8.097 37.904 3 31.617 3Z" fill="#273347"/><path fill-rule="evenodd" clip-rule="evenodd" d="M25.136 10.576a1.132 1.132 0 0 1 1.971 0l7.698 14.096c.26.476.26 1.047 0 1.524l-4.883 8.94a1.68 1.68 0 0 1-1.478.864H17.556a1.68 1.68 0 0 1-1.478-.864l-4.883-8.94a1.587 1.587 0 0 1 0-1.524l7.698-14.096a1.132 1.132 0 0 1 1.971 0L23 14.486l2.136-3.91Zm.724 4.639c.272-.14.61-.04.754.224l5.25 9.614c.13.238.13.523 0 .762l-3.847 7.044a.84.84 0 0 1-.739.432h-8.556a.84.84 0 0 1-.74-.432l-3.846-7.044a.791.791 0 0 1 0-.762l5.25-9.614a.566.566 0 0 1 .986 0l1.054 1.93-3.083 5.646c-.148.27-.269.55-.363.835l-.012.036-.039.124a5.032 5.032 0 0 0-.207 1.432c0 2.843 2.364 5.148 5.28 5.148 2.918 0 5.282-2.305 5.282-5.148 0-.925-.25-1.793-.69-2.543l-1.463-2.678-1.574 2.883.647 1.184c.195.358.293.752.293 1.146h.007v.053c-.024 1.326-1.135 2.393-2.501 2.393-1.382 0-2.502-1.091-2.502-2.438v-.004l.002-.004c0-.159.015-.317.047-.473l.008-.04c.055-.244.148-.476.272-.687l-.004-.002L23 20.252l.002.004 1.574-2.883-.002-.004 1.054-1.93a.55.55 0 0 1 .232-.224Z" fill="#fff"/></svg>
